X:1
T:Title
%%score { 1 | 2 } 3
L:1/8
Q:1/4=132
M:4/4
K:C
V:1 treble-8 nm="Tenor I" snm="T"
V:2 treble-8 
V:3 bass nm="Bass" snm="B"
V:1
 d2 dd g2 d2 | d6"^Tantara cries Mars" d2 | c4 B4 | A2 G2 A4 | B2 d2 g4 | %5
w: Tan- ta- ra, ran- ta-|ra, cries|Mars on|bloo- dy ra-|pier, Fa la,|
 z2 e2"^Thomas Weelkes\n(c.1576-1623)" f4 | z2 d2 e4 | z2 c2 d4 | B2 c3 (BAG) | A2 B2 A4 | B8 :| %11
w: fa la,|fa la,|fa la,|cries Ve- nus * *|in her cham-|ber.|
[M:3/4] d3 e dd | B3 c BB |[M:3/4][K:treble-8] G4 d2 | e2 B2 c2 | B4 e2 | d2 G2 c2 | B4 ee | %18
w: Too- dle loo- dle,|too- die loo- dle|loo, cries|Pan that cuc-|koo, with|bells at his|shoe, and a|
 d2 G2 c2 | B3 B A2 | G2 ^F4 |:[M:4/4] z4 =F4 | F8 | z2 F2 F2 A2 | G2 G2 A4 | A2 e2 e2 d2 | %26
w: fid- dle too|and a fid-|dle too.|Aye|me,|but I, a-|las, lie weep-|ing, for death has|
 e2 ^f2 (g2 =fe) |[M:4/4][K:treble-8] d2 d2 d2 c2 | d2 e2 (fedc) | B2 c2 B3 G | A2 G4 ^F2 | G8 :| %32
w: slain my sweet\- * *|ing, which hath my|heart in keep\- * * *|ing, which hath my|heart in keep-|ing.|
V:2
 B2 BB B2 B2 | B6 B2 | A4 G4 | ^F2 G4 F2 | G4 z2 G2 | c4 z2 A2 | B4 z2 G2 | A4 z2 F2 | %8
w: Tan- ta- ra, ran- ta-|ra, cries|Mars on|bloo- dy ra|pier, Fa|la, fa|la, fa|la, cries|
 G2 E2 ^F2 G2 | (^F2 G4 F2) | G8 :|[M:3/4] z6 | d3 e dd |[M:3/4][K:treble-8] B3 c BB | G4 e2 | %15
w: Ve- nus in her|cham\- * *|ber.||Too- dle loo- dle,|too- dle loo- dle|loo, cries|
 d2 G2 c2 | B4 e2 | d2 G2 c2 | B4 ee | d2 G2 c2 | B2 A4 |:[M:4/4] z4 A4 | d8 | z2 d2 d2 c2 | %24
w: Pan that cuc-|koo, with|bells at his|shoe, and a|fid- dle fid-|dle too.|Aye|me,|but I, a-|
 d2 e2 (f2 ed) | c2 G2 G2 B2 | A2 A2 B4 |[M:4/4][K:treble-8] B2 _B2 F2 A2 | G2 G2 (AGFE) | %29
w: las, lie weep- * *|ing, for death has|slain my sweet-|ing, which hath my|heart in keep\- * * *|
 D2 E2 D2 G2 | ^F2 G2 A4 | B8 :| %32
w: ing, which hath my|heart in keep-|ing.|
V:3
 G,2 G,G, G,2 G,2 | G,6 G,,2 | A,,4 (B,,2 C,2) | D,2 E,2 D,4 | G,,4 z2 E,2 | A,4 z2 D,2 | %6
w: Tan- ta- ra, ran- ta-|ra, cries|Mars on *|bloo- dy ra-|pier, Fa|la, fa|
 G,4 z2 C,2 | F,4 z2 D,2 | E,2 C,2 D,2 E,2 | D,8 | G,,8 :|[M:3/4] G,4 G,2 | G,4 G,2 | %13
w: la, fa|la, cries|Ve- nus in her|cham-|ber.|Too- dle|loo- dle|
[M:3/4] G,4 G,2 | G,2 G,2 G,2 | G,4 G,2 | G,3 G, G,2 | G,6 | G,4 G,2 | G,4 A,2 | B,C D4 |: %21
w: loo, cries|Pan that cuc-|koo, with|bells at his|shoe,|and a|fid- dle|fid- dle too.|
[M:4/4] D,8 | _B,,8 | z2 _B,,2 B,,2 A,,2 | _B,,2 G,,2 F,,4 | F,,2 C,2 C,2 B,,2 | C,2 A,,2 G,,4 | %27
w: Aye|me,|but I, a-|las, lie weep-|ing, for death has|slain my sweet-|
[M:4/4] G,,2 _B,,2 B,,2 A,,2 | _B,,2 G,,2 F,,4 | G,,2 C,2 G,,2 G,,2 | D,8 | G,,8 :| %32
w: ing, which hath my|heart in keep-|ing, my heart in|keep-|ing.|

